_assets/img/i--chain.svg

<svg class="i--chain" width="20px" height="20px" viewBox="0 0 20 20">
  <path d="M13.6618182,13 L11,13 L11,14.5 L13.6618182,14.5 C16.0538182,14.5 18,12.5307692 18,10 C18,7.46923077 16.0538182,5.5 13.6618182,5.5 L11,5.5 L11,7 L13.6618182,7 C15.2516364,7 16.5454545,8.31769231 16.5454545,10 C16.5454545,11.6823077 15.2516364,13 13.6618182,13 Z" id="right" fill="#35444C"></path>
  <rect id="mid" fill="#35444C" x="6" y="9" width="8" height="2"></rect>
  <path d="M6.33818182,7 L9,7 L9,5.5 L6.33818182,5.5 C3.94618182,5.5 2,7.46923077 2,10 C2,12.5307692 3.94618182,14.5 6.33818182,14.5 L9,14.5 L9,13 L6.33818182,13 C4.74836364,13 3.45454545,11.6823077 3.45454545,10 C3.45454545,8.31769231 4.74836364,7 6.33818182,7 Z" id="left" fill="#35444C"></path>
</svg>

<svg class="i--chain" ><path d="M13.662 13H11v1.5h2.662C16.054 14.5 18 12.53 18 10c0-2.53-1.946-4.5-4.338-4.5H11V7h2.662c1.59 0 2.883 1.318 2.883 3s-1.293 3-2.883 3z" fill="#35444C"/><path fill="#35444C" d="M6 9h8v2H6z"/><path d="M6.338 7H9V5.5H6.338C3.946 5.5 2 7.47 2 10c0 2.53 1.946 4.5 4.338 4.5H9V13H6.338c-1.59 0-2.883-1.318-2.883-3s1.293-3 2.883-3z" fill="#35444C"/></svg>
